sicko-ness.svg

<svg clip-rule="evenodd" fill-rule="evenodd" viewBox="0 0 412 616" xmlns="http://www.w3.org/2000/svg"><g transform="matrix(22.681 0 0 22.681 46.7581 46.7581)"><path d="m4 1h1m2 0h1m1 0h1m-2 1h1m-7 5h1m1 0h8m-10 1h10m-7 1h5m-5 1h5m-5 1h5m-3 1h3m2 4h1m-10 1h1m8 0h1m-11 1h2" fill-rule="nonzero" stroke="#f2b092"/><path d="m10 1h1m-9 1h2m1 0h3m2 0h1m-10 1h2m1 0h5m-8 1h2m1 0h3m-2 17h2m2 0h1" fill-rule="nonzero" stroke="#f3005e"/><path d="m10 3h3m-6 1h5m-8 10h5m1 0h1m-8 2h2m1 0h4m1 0h1m-2 1h1m-6 1h6m-7 1h4m1 0h2m-7 1h3m1 0h2" fill-rule="nonzero" stroke="#6f70ec"/><path d="m13 3h1" fill="none" stroke="#c8c8c8"/><path d="m12 4h1m-11 17h2m4 0h1m2 0h1m-12 1h3m1 0h2m3 0h1m2 0h2m-12 1h2m4 0h1m2 0h1" fill-rule="nonzero" stroke="#4f7061"/><path d="m5 5h1m4 0h1m-6 1h2m2 0h3m0 1h1m-1 1h1m-11 1h1m2 3h2m0 1h1" fill-rule="nonzero" stroke="#c9987a"/><path d="m3 9h2m5 0h2m-9 1h2m5 0h2m-8 1h1m5 0h1" fill-rule="nonzero" stroke="#f29090"/><path d="m3 13h1m-1 2h2m1 0h4m1 0h1m-6 2h4" fill-rule="nonzero" stroke="#e1d03a"/><path d="m2 14h1m2 3h1" fill-rule="nonzero" stroke="#f2901d"/><path d="m2 17h1m4 5h1m2 0h1" fill-rule="nonzero" stroke="#f0f0f0"/><path d="m6 22h1" fill="none" stroke="#90a082"/><path d="m3 0h8m-9 1h2m1 0h2m1 0h1m2 0h1m-11 1h1m2 0h1m4 0h1m1 0h3m-14 1h1m2 0h1m5 0h1m-10 1h1m2 0h1m9 0h1m-13 1h4m1 0h4m1 0h2m-13 1h5m2 0h2m3 0h2m-14 1h2m1 0h1m9 0h1m-14 1h2m11 0h1m-13 1h1m10 0h1m-11 1h1m9 0h1m-10 1h1m7 0h1m-9 1h2m5 0h1m-9 1h1m1 0h3m1 0h3m-10 1h1m1 0h1m5 0h1m1 0h1m-11 1h2m2 0h1m4 0h1m1 0h1m-11 1h1m2 0h1m4 0h1m2 0h1m-13 1h1m2 0h1m6 0h1m1 0h1m-13 1h1m2 0h1m6 0h2m-11 1h2m4 0h1m2 0h1m-9 1h1m3 0h1m2 0h1m-7 1h1m2 0h1m2 0h1m-8 1h1m4 0h1m2 0h1m-8 1h4m1 0h2" fill-rule="nonzero" stroke="#302020"/></g><path d="m92.828 193.57c.752 5.809 2.956 21.451 2.956 21.451s-17.552 23.7-21.481 24.263c-4.803-16.987-5.094-17.094-5.094-17.094s-3.143.124-8.339 2.21c-3.779-24.786.426.706-3.67-23.905" fill="#010101" fill-rule="nonzero" transform="matrix(-1.18200205 .18445917 .14313369 .91717628 287.406699 89.046756)"/><path d="m86.564 199.426c6.675 9.152.313-.155 6.891 9.745-.33-.095-.142-.402-9.037-6.644-.129-.091 2.155-3.051 2.146-3.101z" fill="#fff" fill-rule="nonzero" transform="matrix(-.6936596 .91727608 .79761936 .60316307 109.11762 86.749825)"/><path d="m78.984 208.798c.96-.819 5.255-.733 5.525-.962-1.726 9.58-1.841 9.441-1.841 9.441s-.025-.014-3.684-8.479z" fill="#fff" fill-rule="nonzero" transform="matrix(-.99624801 .08659489 .08659557 .9962395 283.814023 73.353931)"/><path d="m57.97 211.51c1.73.87 6.587.606 6.587.606s-2.375 6.467-2.237 6.424c-1.57-2.27-2.91-4.69-4.35-7.03z" fill="#fff" fill-rule="nonzero" transform="matrix(-1.00000404 .00000028 .00000022 .99999551 304.005105 75.666115)"/><path d="m69.063 213.969c1.8-.2 3.687-.058 5.477-.298-2.666 6.411-.127.122-2.768 7.39-2.535-7.083-.149-.401-2.709-7.092z" fill="#fff" fill-rule="nonzero" transform="matrix(-.99947705 -.03244538 -.03244571 .99946852 310.593132 76.686259)"/><path d="m32.87 82c1.597-.356 4.291.765 6.652.714 3.468 5.873 6.307 10.982 6.307 10.982s3.853.246 11.11.893c-.766 5.633-2.964 31.891-2.964 31.891s-17.462-10.85-18.385-12.01c-5.828.716.004.128-5.67.42-6.537 21.599.156-.142-6.4 22.06 1.434 8.79 5.746 26.041 13.61 31.41 11.014-11.136.009-.067 11.11-11.16-3.238 15.601-.083.625-3.36 15.7-.283.175-14.91 9.03-14.91 9.03s.047.193-5.22-4.08c11.306-4.042-.192.088 11.33-3.98-3.18-1.29-3.445-1.627-8.92-5.33-3.783-9.912-6.037-19.077-8.38-30.63 6.764-25.052.104.328 6.49-24.64 1.23-1.98 3.29-3.15 5.19-4.41-2.19-2.7-4.71-5.11-6.91-7.79 3.729 1.435 9.77 6.33 13.34 8.59-2.66-3.56-13.392-16.353-15.46-20.18 3.527 1.381 11.43 7.65 13.43 10.19-2.15-5.98-8.15-18.18-7.3-17.07 3.28 3.01 5.6 6.85 8.27 10.37-.7-3.74-2.2-7.25-2.96-10.97z" fill="#302020" fill-rule="nonzero" transform="matrix(-1.19150013 -.10717743 -.09903602 1.10097511 327.368395 72.580789)"/><path d="m32.87 82c1.597-.356 4.291.765 6.652.714 3.468 5.873 6.307 10.982 6.307 10.982s3.853.246 11.11.893c-.766 5.633-2.964 31.891-2.964 31.891s-17.462-10.85-18.385-12.01c-2.491.075-3.042.073-5.67.42-6.263 22.338.11-.26-6.4 22.06 1.434 8.79 3.189 17.32 5.52 25.89 7.859 5.327-.017.011 8.09 5.52 6.871-5.49 7.165-5.462 11.11-11.16-3.102 14.857-.083.625-3.36 15.7-15.041 9.287-14.91 9.03-14.91 9.03s.047.193-5.22-4.08c9.118-2.87 9.1-2.92 11.33-3.98-9.124-6.015-.134-.102-8.92-5.33-3.85-9.402-3.708-9.455-8.38-30.63 6.525-24.505-.235-.765 6.49-24.64 5.106-4.409.165-.108 5.19-4.41-6.818-7.764-.206-.056-6.91-7.79 3.729 1.435 9.77 6.33 13.34 8.59-2.66-3.56-13.392-16.353-15.46-20.18 13.157 10.346.332.103 13.43 10.19-2.15-5.98-8.15-18.18-7.3-17.07 3.28 3.01 5.6 6.85 8.27 10.37-.7-3.74-2.2-7.25-2.96-10.97z" fill="#302020" fill-rule="nonzero" transform="matrix(1.19150013 -.10717743 .09903602 1.10097511 130.664121 71.900513)"/><path d="m56.69 118.24c1.24.03 2.49.09 3.72.2-10.25 64.694-10.22 64.76-10.11 68.34 11.359.47.1-.024 11.24.43.469-.413 12.86-11.62 12.86-11.62s-.328-3.743-2.45-10.37c-3.073 3.104-2.84 3.127-6.04 7.1 6.986-11.861.106-.154 7.05-11.77 3.537 2.868 3.707 3.019 7.31 6.22 1.62 3.84 1.663 4 13.19 24.8-9.583-11.513-9.43-11.596-13.15-15.76-7.294 7.912-7.292 8.197-18.18 17.33-13.152-.868.037-.228-13.24-.97-3.431-9-3.53-9.16-3.53-9.16s11.04-63.113 11.33-64.77z" fill="#302020" fill-rule="nonzero" transform="matrix(-1.19415061 .07194825 .06648291 1.10341919 294.087603 63.921592)"/><path d="m260.168 207.683h7.823v20.309h-7.823z" fill="#302020" transform="matrix(1.00000358 0 0 1.21578513 4.327016 -39.976591)"/><path d="m260.168 207.683h7.823v20.309h-7.823z" fill="#302020" transform="matrix(1.00000358 0 0 1.1487193 -68.835727 -25.92772)"/></svg>

<svg xmlns="http://www.w3.org/2000/svg" fill-rule="evenodd" clip-rule="evenodd" viewBox="0 0 412 616"><path fill-rule="nonzero" stroke="#f2b092" d="M4,1L5,1M7,1L8,1M9,1L10,1M8,2L9,2M2,7L3,7M4,7L12,7M2,8L12,8M5,9L10,9M5,10L10,10M5,11L10,11M7,12L10,12M12,16L13,16M3,17L4,17M12,17L13,17M2,18L4,18" transform="matrix(22.681,0,0,22.681,46.7581,46.7581)"/><path fill-rule="nonzero" stroke="#f3005e" d="M10,1L11,1M2,2L4,2M5,2L8,2M10,2L11,2M1,3L3,3M4,3L9,3M1,4L3,4M4,4L7,4M5,21L7,21M9,21L10,21" transform="matrix(22.681,0,0,22.681,46.7581,46.7581)"/><path fill-rule="nonzero" stroke="#6f70ec" d="M10,3L13,3M7,4L12,4M4,14L9,14M10,14L11,14M3,16L5,16M6,16L10,16M11,16L12,16M10,17L11,17M5,18L11,18M4,19L8,19M9,19L11,19M4,20L7,20M8,20L10,20" transform="matrix(22.681,0,0,22.681,46.7581,46.7581)"/><path fill="none" stroke="#c8c8c8" d="M13,3L14,3" transform="matrix(22.681,0,0,22.681,46.7581,46.7581)"/><path fill-rule="nonzero" stroke="#4f7061" d="M12,4L13,4M2,21L4,21M8,21L9,21M11,21L12,21M0,22L3,22M4,22L6,22M9,22L10,22M12,22L14,22M2,23L4,23M8,23L9,23M11,23L12,23" transform="matrix(22.681,0,0,22.681,46.7581,46.7581)"/><path fill-rule="nonzero" stroke="#c9987a" d="M5,5L6,5M10,5L11,5M5,6L7,6M9,6L12,6M12,7L13,7M12,8L13,8M2,9L3,9M5,12L7,12M7,13L8,13" transform="matrix(22.681,0,0,22.681,46.7581,46.7581)"/><path fill-rule="nonzero" stroke="#f29090" d="M3,9L5,9M10,9L12,9M3,10L5,10M10,10L12,10M4,11L5,11M10,11L11,11" transform="matrix(22.681,0,0,22.681,46.7581,46.7581)"/><path fill-rule="nonzero" stroke="#e1d03a" d="M3,13L4,13M3,15L5,15M6,15L10,15M11,15L12,15M6,17L10,17" transform="matrix(22.681,0,0,22.681,46.7581,46.7581)"/><path fill-rule="nonzero" stroke="#f2901d" d="M2,14L3,14M5,17L6,17" transform="matrix(22.681,0,0,22.681,46.7581,46.7581)"/><path fill-rule="nonzero" stroke="#f0f0f0" d="M2,17L3,17M7,22L8,22M10,22L11,22" transform="matrix(22.681,0,0,22.681,46.7581,46.7581)"/><path fill="none" stroke="#90a082" d="M6,22L7,22" transform="matrix(22.681,0,0,22.681,46.7581,46.7581)"/><path fill-rule="nonzero" stroke="#302020" d="M3,0L11,0M2,1L4,1M5,1L7,1M8,1L9,1M11,1L12,1M1,2L2,2M4,2L5,2M9,2L10,2M11,2L14,2M0,3L1,3M3,3L4,3M9,3L10,3M0,4L1,4M3,4L4,4M13,4L14,4M1,5L5,5M6,5L10,5M11,5L13,5M0,6L5,6M7,6L9,6M12,6L14,6M0,7L2,7M3,7L4,7M13,7L14,7M0,8L2,8M13,8L14,8M1,9L2,9M12,9L13,9M2,10L3,10M12,10L13,10M3,11L4,11M11,11L12,11M3,12L5,12M10,12L11,12M2,13L3,13M4,13L7,13M8,13L11,13M1,14L2,14M3,14L4,14M9,14L10,14M11,14L12,14M1,15L3,15M5,15L6,15M10,15L11,15M12,15L13,15M2,16L3,16M5,16L6,16M10,16L11,16M13,16L14,16M1,17L2,17M4,17L5,17M11,17L12,17M13,17L14,17M1,18L2,18M4,18L5,18M11,18L13,18M2,19L4,19M8,19L9,19M11,19L12,19M3,20L4,20M7,20L8,20M10,20L11,20M4,21L5,21M7,21L8,21M10,21L11,21M3,22L4,22M8,22L9,22M11,22L12,22M4,23L8,23M9,23L11,23" transform="matrix(22.681,0,0,22.681,46.7581,46.7581)"/><path fill="#010101" fill-rule="nonzero" d="M92.828,193.57C93.58,199.379 95.784,215.021 95.784,215.021C95.784,215.021 78.232,238.721 74.303,239.284C69.5,222.297 69.209,222.19 69.209,222.19C69.209,222.19 66.066,222.314 60.87,224.4C57.091,199.614 61.296,225.106 57.2,200.495" transform="matrix(1.04762,0,0,1.10542,-13.2202,-38.1425) matrix(0.988041,-0.146128,0.1627,0.988041,-29.0971,33.9649) matrix(-1.14193,3.91553e-17,0,0.839751,299.085,126.31)"/><path fill="#fff" fill-rule="nonzero" d="M86.564,199.426C93.239,208.578 86.877,199.271 93.455,209.171C93.125,209.076 93.313,208.769 84.418,202.527C84.289,202.436 86.573,199.476 86.564,199.426Z" transform="matrix(1.04762,0,0,1.10542,-13.2202,-38.1425) matrix(0.988041,-0.146128,0.1627,0.988041,-29.0971,33.9649) matrix(0.943133,0.139486,-0.147183,0.893811,144.464,100.54) matrix(-0.693657,0.91728,0.797616,0.603166,-13.8497,0.872705)"/><path fill="#fff" fill-rule="nonzero" d="M78.984,208.798C79.944,207.979 84.239,208.065 84.509,207.836C82.783,217.416 82.668,217.277 82.668,217.277C82.668,217.277 82.643,217.263 78.984,208.798Z" transform="matrix(1.04762,0,0,1.10542,-13.2202,-38.1425) matrix(0.988041,-0.146128,0.1627,0.988041,-29.0971,33.9649) matrix(0.943133,0.139486,-0.147183,0.893811,144.464,100.54) matrix(-0.996244,0.086595,0.086595,0.996244,160.846,-12.5232)"/><path fill="#fff" fill-rule="nonzero" d="M57.97,211.51C59.7,212.38 64.557,212.116 64.557,212.116C64.557,212.116 62.182,218.583 62.32,218.54C60.75,216.27 59.41,213.85 57.97,211.51Z" transform="matrix(1.04762,0,0,1.10542,-13.2202,-38.1425) matrix(0.988041,-0.146128,0.1627,0.988041,-29.0971,33.9649) matrix(0.943133,0.139486,-0.147183,0.893811,144.464,100.54) matrix(-1,0,0,1,181.037,-10.211)"/><path fill="#fff" fill-rule="nonzero" d="M69.063,213.969C70.863,213.769 72.75,213.911 74.54,213.671C71.874,220.082 74.413,213.793 71.772,221.061C69.237,213.978 71.623,220.66 69.063,213.969Z" transform="matrix(1.04762,0,0,1.10542,-13.2202,-38.1425) matrix(0.988041,-0.146128,0.1627,0.988041,-29.0971,33.9649) matrix(0.943133,0.139486,-0.147183,0.893811,144.464,100.54) matrix(-0.999473,-0.0324458,-0.0324458,0.999473,187.625,-9.19085)"/><path fill="#302020" fill-rule="nonzero" d="M32.87,82C34.467,81.644 37.161,82.765 39.522,82.714C42.99,88.587 45.829,93.696 45.829,93.696C45.829,93.696 49.682,93.942 56.939,94.589C56.173,100.222 53.975,126.48 53.975,126.48C53.975,126.48 36.513,115.63 35.59,114.47C29.762,115.186 35.594,114.598 29.92,114.89C23.383,136.489 30.076,114.748 23.52,136.95C24.954,145.74 29.266,162.991 37.13,168.36C48.144,157.224 37.139,168.293 48.24,157.2C45.002,172.801 48.157,157.825 44.88,172.9C44.597,173.075 29.97,181.93 29.97,181.93C29.97,181.93 30.017,182.123 24.75,177.85C36.056,173.808 24.558,177.938 36.08,173.87C32.9,172.58 32.635,172.243 27.16,168.54C23.377,158.628 21.123,149.463 18.78,137.91C25.544,112.858 18.884,138.238 25.27,113.27C26.5,111.29 28.56,110.12 30.46,108.86C28.27,106.16 25.75,103.75 23.55,101.07C27.279,102.505 33.32,107.4 36.89,109.66C34.23,106.1 23.498,93.307 21.43,89.48C24.957,90.861 32.86,97.13 34.86,99.67C32.71,93.69 26.71,81.49 27.56,82.6C30.84,85.61 33.16,89.45 35.83,92.97C35.13,89.23 33.63,85.72 32.87,82Z" transform="matrix(1.04762,0,0,1.10542,-13.2202,-38.1425) matrix(-1.13734,-0.0969563,-0.0945343,0.995979,325.107,100.164)"/><g><path fill="#302020" fill-rule="nonzero" d="M32.87,82C34.467,81.644 37.161,82.765 39.522,82.714C42.99,88.587 45.829,93.696 45.829,93.696C45.829,93.696 49.682,93.942 56.939,94.589C56.173,100.222 53.975,126.48 53.975,126.48C53.975,126.48 36.513,115.63 35.59,114.47C33.099,114.545 32.548,114.543 29.92,114.89C23.657,137.228 30.03,114.63 23.52,136.95C24.954,145.74 26.709,154.27 29.04,162.84C36.899,168.167 29.023,162.851 37.13,168.36C44.001,162.87 44.295,162.898 48.24,157.2C45.138,172.057 48.157,157.825 44.88,172.9C29.839,182.187 29.97,181.93 29.97,181.93C29.97,181.93 30.017,182.123 24.75,177.85C33.868,174.98 33.85,174.93 36.08,173.87C26.956,167.855 35.946,173.768 27.16,168.54C23.31,159.138 23.452,159.085 18.78,137.91C25.305,113.405 18.545,137.145 25.27,113.27C30.376,108.861 25.435,113.162 30.46,108.86C23.642,101.096 30.254,108.804 23.55,101.07C27.279,102.505 33.32,107.4 36.89,109.66C34.23,106.1 23.498,93.307 21.43,89.48C34.587,99.826 21.762,89.583 34.86,99.67C32.71,93.69 26.71,81.49 27.56,82.6C30.84,85.61 33.16,89.45 35.83,92.97C35.13,89.23 33.63,85.72 32.87,82Z" transform="matrix(1.04762,0,0,1.10542,-13.2202,-38.1425) matrix(1.13734,-0.0969563,0.0945343,0.995979,137.344,99.5486)"/></g><g><path fill="#302020" fill-rule="nonzero" d="M56.69,118.24C57.93,118.27 59.18,118.33 60.41,118.44C50.16,183.134 50.19,183.2 50.3,186.78C61.659,187.25 50.4,186.756 61.54,187.21C62.009,186.797 74.4,175.59 74.4,175.59C74.4,175.59 74.072,171.847 71.95,165.22C68.877,168.324 69.11,168.347 65.91,172.32C72.896,160.459 66.016,172.166 72.96,160.55C76.497,163.418 76.667,163.569 80.27,166.77C81.89,170.61 81.933,170.77 93.46,191.57C83.877,180.057 84.03,179.974 80.31,175.81C73.016,183.722 73.018,184.007 62.13,193.14C48.978,192.272 62.167,192.912 48.89,192.17C45.459,183.17 45.36,183.01 45.36,183.01C45.36,183.01 56.4,119.897 56.69,118.24Z" transform="matrix(1.04762,0,0,1.10542,-13.2202,-38.1425) matrix(-1.13987,0.0650868,0.0634609,0.99819,293.339,92.3306)"/></g><g transform="matrix(1.04762,0,0,1.10542,-13.2202,-38.1425) matrix(0.954548,0,0,1.09984,16.7496,-1.65918)"><rect width="7.823" height="20.309" x="260.168" y="207.683" fill="#302020"/></g><g transform="matrix(1.04762,0,0,1.10542,-13.2202,-38.1425) matrix(0.954548,0,0,1.03917,-53.0875,11.0499)"><rect width="7.823" height="20.309" x="260.168" y="207.683" fill="#302020"/></g></svg>
